portal/assets/img/component/stepper/anatomy-stepper-1.svg

<svg width="259" height="207" viewBox="0 0 259 207" fill="none" xmlns="http://www.w3.org/2000/svg">
<rect x="23.5" y="66" width="44" height="44" rx="22" fill="#98A2B3"/>
<path d="M47.0767 82.3636V94H45.6676V83.8409H45.5994L42.7585 85.7273V84.2955L45.6676 82.3636H47.0767Z" fill="white"/>
<rect x="23.5" y="66" width="44" height="44" rx="22" stroke="white" stroke-width="4"/>
<path d="M1.44105 122.364H4.47514L7.67969 130.182H7.81605L11.0206 122.364H14.0547V134H11.6683V126.426H11.5717L8.56037 133.943H6.93537L3.92401 126.398H3.82741V134H1.44105V122.364ZM18.5249 134.165C17.968 134.165 17.4718 134.068 17.0362 133.875C16.6006 133.678 16.2559 133.388 16.0021 133.006C15.7521 132.619 15.6271 132.138 15.6271 131.562C15.6271 131.078 15.7161 130.67 15.8942 130.341C16.0722 130.011 16.3146 129.746 16.6214 129.545C16.9283 129.345 17.2768 129.193 17.6669 129.091C18.0608 128.989 18.4737 128.917 18.9055 128.875C19.4131 128.822 19.8222 128.773 20.1328 128.727C20.4434 128.678 20.6688 128.606 20.8089 128.511C20.9491 128.417 21.0192 128.277 21.0192 128.091V128.057C21.0192 127.697 20.9055 127.419 20.6783 127.222C20.4548 127.025 20.1366 126.926 19.7237 126.926C19.2881 126.926 18.9415 127.023 18.6839 127.216C18.4264 127.405 18.2559 127.644 18.1726 127.932L15.9339 127.75C16.0476 127.22 16.2711 126.761 16.6044 126.375C16.9377 125.985 17.3677 125.686 17.8942 125.477C18.4245 125.265 19.0381 125.159 19.7351 125.159C20.2199 125.159 20.6839 125.216 21.1271 125.33C21.5741 125.443 21.9699 125.619 22.3146 125.858C22.6631 126.097 22.9377 126.403 23.1385 126.778C23.3393 127.15 23.4396 127.595 23.4396 128.114V134H21.1442V132.79H21.076C20.9358 133.062 20.7483 133.303 20.5135 133.511C20.2786 133.716 19.9964 133.877 19.6669 133.994C19.3374 134.108 18.9567 134.165 18.5249 134.165ZM19.218 132.494C19.5741 132.494 19.8885 132.424 20.1612 132.284C20.4339 132.14 20.648 131.947 20.8033 131.705C20.9586 131.462 21.0362 131.187 21.0362 130.881V129.955C20.9605 130.004 20.8563 130.049 20.7237 130.091C20.5949 130.129 20.4491 130.165 20.2862 130.199C20.1233 130.229 19.9605 130.258 19.7976 130.284C19.6347 130.307 19.487 130.328 19.3544 130.347C19.0703 130.388 18.8222 130.455 18.6101 130.545C18.398 130.636 18.2332 130.759 18.1158 130.915C17.9983 131.066 17.9396 131.256 17.9396 131.483C17.9396 131.812 18.0589 132.064 18.2976 132.239C18.54 132.409 18.8468 132.494 19.218 132.494ZM25.3175 134V125.273H27.6641V126.795H27.755C27.9141 126.254 28.1811 125.845 28.5561 125.568C28.9311 125.288 29.3629 125.148 29.8516 125.148C29.9728 125.148 30.1035 125.155 30.2436 125.17C30.3838 125.186 30.5069 125.206 30.6129 125.233V127.381C30.4993 127.347 30.3421 127.316 30.1413 127.29C29.9406 127.263 29.7569 127.25 29.5902 127.25C29.2341 127.25 28.916 127.328 28.6357 127.483C28.3591 127.634 28.1394 127.847 27.9766 128.119C27.8175 128.392 27.7379 128.706 27.7379 129.062V134H25.3175ZM34.0575 131.489L34.0632 128.585H34.4155L37.2109 125.273H39.9893L36.2337 129.659H35.6598L34.0575 131.489ZM31.8643 134V122.364H34.2848V134H31.8643ZM37.3189 134L34.7507 130.199L36.3643 128.489L40.1541 134H37.3189ZM44.7947 134.17C43.897 134.17 43.1243 133.989 42.4766 133.625C41.8326 133.258 41.3364 132.739 40.9879 132.068C40.6394 131.394 40.4652 130.597 40.4652 129.676C40.4652 128.778 40.6394 127.991 40.9879 127.312C41.3364 126.634 41.8269 126.106 42.4595 125.727C43.0959 125.348 43.8421 125.159 44.6982 125.159C45.2739 125.159 45.8099 125.252 46.3061 125.438C46.8061 125.619 47.2417 125.894 47.6129 126.261C47.9879 126.629 48.2796 127.091 48.4879 127.648C48.6963 128.201 48.8004 128.848 48.8004 129.591V130.256H41.4311V128.756H46.522C46.522 128.407 46.4463 128.098 46.2947 127.83C46.1432 127.561 45.933 127.35 45.6641 127.199C45.3989 127.044 45.0902 126.966 44.7379 126.966C44.3705 126.966 44.0447 127.051 43.7607 127.222C43.4804 127.388 43.2607 127.614 43.1016 127.898C42.9425 128.178 42.861 128.491 42.8572 128.835V130.261C42.8572 130.693 42.9368 131.066 43.0959 131.381C43.2588 131.695 43.4879 131.938 43.7834 132.108C44.0788 132.278 44.4292 132.364 44.8345 132.364C45.1035 132.364 45.3497 132.326 45.5732 132.25C45.7966 132.174 45.9879 132.061 46.147 131.909C46.3061 131.758 46.4273 131.572 46.5107 131.352L48.7493 131.5C48.6357 132.038 48.4027 132.508 48.0504 132.909C47.7019 133.307 47.2512 133.617 46.6982 133.841C46.1489 134.061 45.5144 134.17 44.7947 134.17ZM50.38 134V125.273H52.7266V126.795H52.8175C52.9766 126.254 53.2436 125.845 53.6186 125.568C53.9936 125.288 54.4254 125.148 54.9141 125.148C55.0353 125.148 55.166 125.155 55.3061 125.17C55.4463 125.186 55.5694 125.206 55.6754 125.233V127.381C55.5618 127.347 55.4046 127.316 55.2038 127.29C55.0031 127.263 54.8194 127.25 54.6527 127.25C54.2966 127.25 53.9785 127.328 53.6982 127.483C53.4216 127.634 53.2019 127.847 53.0391 128.119C52.88 128.392 52.8004 128.706 52.8004 129.062V134H50.38ZM65.272 125.273V127.091H60.0163V125.273H65.272ZM61.2095 123.182H63.63V131.318C63.63 131.542 63.6641 131.716 63.7322 131.841C63.8004 131.962 63.8951 132.047 64.0163 132.097C64.1413 132.146 64.2853 132.17 64.4482 132.17C64.5618 132.17 64.6754 132.161 64.7891 132.142C64.9027 132.119 64.9898 132.102 65.0504 132.091L65.4311 133.892C65.3099 133.93 65.1394 133.973 64.9197 134.023C64.7 134.076 64.433 134.108 64.1186 134.119C63.5353 134.142 63.0239 134.064 62.5845 133.886C62.1489 133.708 61.8099 133.432 61.5675 133.057C61.325 132.682 61.2057 132.208 61.2095 131.636V123.182ZM66.8487 134V125.273H69.2692V134H66.8487ZM68.0646 124.148C67.7048 124.148 67.3961 124.028 67.1385 123.79C66.8847 123.547 66.7578 123.258 66.7578 122.92C66.7578 122.587 66.8847 122.301 67.1385 122.062C67.3961 121.82 67.7048 121.699 68.0646 121.699C68.4245 121.699 68.7313 121.82 68.9851 122.062C69.2427 122.301 69.3714 122.587 69.3714 122.92C69.3714 123.258 69.2427 123.547 68.9851 123.79C68.7313 124.028 68.4245 124.148 68.0646 124.148ZM75.8501 125.273V127.091H70.5945V125.273H75.8501ZM71.7876 123.182H74.2081V131.318C74.2081 131.542 74.2422 131.716 74.3104 131.841C74.3786 131.962 74.4732 132.047 74.5945 132.097C74.7195 132.146 74.8634 132.17 75.0263 132.17C75.1399 132.17 75.2536 132.161 75.3672 132.142C75.4808 132.119 75.5679 132.102 75.6286 132.091L76.0092 133.892C75.888 133.93 75.7176 133.973 75.4979 134.023C75.2782 134.076 75.0111 134.108 74.6967 134.119C74.1134 134.142 73.602 134.064 73.1626 133.886C72.727 133.708 72.388 133.432 72.1456 133.057C71.9032 132.682 71.7839 132.208 71.7876 131.636V123.182ZM80.0348 122.364V134H77.6143V122.364H80.0348ZM85.951 134.17C85.0533 134.17 84.2805 133.989 83.6328 133.625C82.9889 133.258 82.4927 132.739 82.1442 132.068C81.7957 131.394 81.6214 130.597 81.6214 129.676C81.6214 128.778 81.7957 127.991 82.1442 127.312C82.4927 126.634 82.9832 126.106 83.6158 125.727C84.2521 125.348 84.9983 125.159 85.8544 125.159C86.4302 125.159 86.9661 125.252 87.4624 125.438C87.9624 125.619 88.398 125.894 88.7692 126.261C89.1442 126.629 89.4358 127.091 89.6442 127.648C89.8525 128.201 89.9567 128.848 89.9567 129.591V130.256H82.5874V128.756H87.6783C87.6783 128.407 87.6025 128.098 87.451 127.83C87.2995 127.561 87.0893 127.35 86.8203 127.199C86.5552 127.044 86.2464 126.966 85.8942 126.966C85.5268 126.966 85.201 127.051 84.9169 127.222C84.6366 127.388 84.4169 127.614 84.2578 127.898C84.0987 128.178 84.0173 128.491 84.0135 128.835V130.261C84.0135 130.693 84.093 131.066 84.2521 131.381C84.415 131.695 84.6442 131.938 84.9396 132.108C85.2351 132.278 85.5855 132.364 85.9908 132.364C86.2597 132.364 86.5059 132.326 86.7294 132.25C86.9529 132.174 87.1442 132.061 87.3033 131.909C87.4624 131.758 87.5836 131.572 87.6669 131.352L89.9055 131.5C89.7919 132.038 89.5589 132.508 89.2067 132.909C88.8582 133.307 88.4074 133.617 87.8544 133.841C87.3052 134.061 86.6707 134.17 85.951 134.17Z" fill="#344054"/>
<rect x="67" y="90" width="168" height="4" fill="#98A2B3"/>
<circle cx="45" cy="191" r="12" fill="#344054"/>
<path d="M39.9432 197V195.227L44.0852 191.392C44.4375 191.051 44.733 190.744 44.9716 190.472C45.214 190.199 45.3977 189.932 45.5227 189.67C45.6477 189.405 45.7102 189.119 45.7102 188.812C45.7102 188.472 45.6326 188.178 45.4773 187.932C45.322 187.682 45.1098 187.491 44.8409 187.358C44.572 187.222 44.267 187.153 43.9261 187.153C43.5701 187.153 43.2595 187.225 42.9943 187.369C42.7292 187.513 42.5246 187.72 42.3807 187.989C42.2367 188.258 42.1648 188.578 42.1648 188.949H39.8295C39.8295 188.187 40.0019 187.527 40.3466 186.966C40.6913 186.405 41.1742 185.972 41.7955 185.665C42.4167 185.358 43.1326 185.205 43.9432 185.205C44.7765 185.205 45.5019 185.352 46.1193 185.648C46.7405 185.939 47.2235 186.345 47.5682 186.864C47.9129 187.383 48.0852 187.977 48.0852 188.648C48.0852 189.087 47.9981 189.521 47.8239 189.949C47.6534 190.377 47.3485 190.852 46.9091 191.375C46.4697 191.894 45.8504 192.517 45.0511 193.244L43.3523 194.909V194.989H48.2386V197H39.9432Z" fill="white"/>
<path d="M45 180L45 141" stroke="#344054" stroke-dasharray="2 2"/>
<circle cx="247" cy="140" r="12" fill="#344054"/>
<path d="M246.244 146.159C245.396 146.159 244.64 146.013 243.977 145.722C243.318 145.426 242.797 145.021 242.415 144.506C242.036 143.987 241.841 143.388 241.83 142.71H244.307C244.322 142.994 244.415 143.244 244.585 143.46C244.759 143.672 244.991 143.837 245.278 143.955C245.566 144.072 245.89 144.131 246.25 144.131C246.625 144.131 246.956 144.064 247.244 143.932C247.532 143.799 247.758 143.616 247.92 143.381C248.083 143.146 248.165 142.875 248.165 142.568C248.165 142.258 248.078 141.983 247.903 141.744C247.733 141.502 247.487 141.312 247.165 141.176C246.847 141.04 246.468 140.972 246.028 140.972H244.943V139.165H246.028C246.4 139.165 246.727 139.1 247.011 138.972C247.299 138.843 247.523 138.665 247.682 138.438C247.841 138.206 247.92 137.938 247.92 137.631C247.92 137.339 247.85 137.083 247.71 136.864C247.574 136.64 247.381 136.466 247.131 136.341C246.884 136.216 246.597 136.153 246.267 136.153C245.934 136.153 245.629 136.214 245.352 136.335C245.076 136.453 244.854 136.621 244.688 136.841C244.521 137.061 244.432 137.318 244.42 137.614H242.062C242.074 136.943 242.265 136.352 242.636 135.841C243.008 135.33 243.508 134.93 244.136 134.642C244.769 134.35 245.483 134.205 246.278 134.205C247.081 134.205 247.784 134.35 248.386 134.642C248.989 134.934 249.456 135.328 249.79 135.824C250.127 136.316 250.294 136.869 250.29 137.483C250.294 138.134 250.091 138.678 249.682 139.114C249.277 139.549 248.748 139.826 248.097 139.943V140.034C248.953 140.144 249.604 140.441 250.051 140.926C250.502 141.407 250.725 142.009 250.722 142.733C250.725 143.396 250.534 143.985 250.148 144.5C249.765 145.015 249.237 145.42 248.562 145.716C247.888 146.011 247.116 146.159 246.244 146.159Z" fill="white"/>
<path d="M247 129L247 90" stroke="#344054" stroke-dasharray="2 2"/>
<circle cx="92" cy="16" r="12" fill="#344054"/>
<path d="M94.0057 10.3636V22H91.5455V12.6989H91.4773L88.8125 14.3693V12.1875L91.6932 10.3636H94.0057Z" fill="white"/>
<path d="M89 16H45V66" stroke="#344054" stroke-dasharray="2 2"/>
</svg>

<svg width="259" height="207" viewBox="0 0 259 207" fill="none" xmlns="http://www.w3.org/2000/svg"><rect x="23.5" y="66" width="44" height="44" rx="22" fill="#98A2B3"/><path d="M47.077 82.364V94h-1.41V83.84H45.6l-2.84 1.887v-1.431l2.909-1.932h1.409Z" fill="#fff"/><rect x="23.5" y="66" width="44" height="44" rx="22" stroke="#fff" stroke-width="4"/><path d="M1.441 122.364h3.034l3.205 7.818h.136l3.205-7.818h3.034V134h-2.387v-7.574h-.096l-3.012 7.517H6.935l-3.011-7.545h-.097V134H1.441v-11.636Zm17.084 11.801c-.557 0-1.053-.097-1.489-.29a2.4 2.4 0 0 1-1.034-.869c-.25-.387-.375-.868-.375-1.444 0-.484.09-.892.267-1.221.178-.33.42-.595.727-.796.307-.2.656-.352 1.046-.454a8.04 8.04 0 0 1 1.238-.216c.508-.053.917-.102 1.228-.148.31-.049.536-.121.676-.216a.472.472 0 0 0 .21-.42v-.034c0-.36-.113-.638-.34-.835-.224-.197-.542-.296-.955-.296-.436 0-.782.097-1.04.29a1.332 1.332 0 0 0-.511.716l-2.24-.182a3.06 3.06 0 0 1 .671-1.375c.334-.39.764-.689 1.29-.898.53-.212 1.144-.318 1.841-.318.485 0 .949.057 1.392.171a3.62 3.62 0 0 1 1.188.528c.348.239.623.545.823.92.201.372.302.817.302 1.336V134h-2.296v-1.21h-.068c-.14.272-.328.513-.563.721a2.589 2.589 0 0 1-.846.483 3.49 3.49 0 0 1-1.142.171Zm.693-1.671c.356 0 .67-.07.943-.21a1.67 1.67 0 0 0 .642-.579c.156-.243.233-.518.233-.824v-.926a1.32 1.32 0 0 1-.312.136 5.6 5.6 0 0 1-.438.108 21.7 21.7 0 0 1-.488.085l-.444.063a3.005 3.005 0 0 0-.744.198 1.186 1.186 0 0 0-.494.37.898.898 0 0 0-.176.568c0 .329.119.581.358.756.242.17.549.255.92.255Zm6.1 1.506v-8.727h2.346v1.522h.091c.16-.541.426-.95.801-1.227.375-.28.807-.42 1.296-.42.12 0 .252.007.392.022.14.016.263.036.369.063v2.148a3.105 3.105 0 0 0-.472-.091c-.2-.027-.384-.04-.55-.04a1.94 1.94 0 0 0-.955.233 1.715 1.715 0 0 0-.66.636 1.838 1.838 0 0 0-.238.943V134h-2.42Zm8.74-2.511.005-2.904h.352l2.796-3.312h2.778l-3.755 4.386h-.574l-1.602 1.83ZM31.863 134v-11.636h2.42V134h-2.42Zm5.455 0-2.568-3.801 1.613-1.71 3.79 5.511H37.32Zm7.476.17c-.898 0-1.67-.181-2.318-.545a3.73 3.73 0 0 1-1.49-1.557c-.348-.674-.522-1.471-.522-2.392 0-.898.174-1.685.523-2.364a3.865 3.865 0 0 1 1.471-1.585c.637-.379 1.383-.568 2.24-.568.575 0 1.11.093 1.607.279.5.181.936.456 1.307.823.375.368.667.83.875 1.387.208.553.312 1.2.312 1.943v.665H41.43v-1.5h5.091c0-.349-.076-.658-.227-.926a1.625 1.625 0 0 0-.63-.631 1.802 1.802 0 0 0-.927-.233c-.367 0-.693.085-.977.256a1.8 1.8 0 0 0-.66.676c-.158.28-.24.593-.244.937v1.426c0 .432.08.805.239 1.12.163.314.392.557.687.727.296.17.646.256 1.051.256.27 0 .516-.038.74-.114a1.477 1.477 0 0 0 .938-.898l2.237.148a3.053 3.053 0 0 1-.699 1.409c-.348.398-.799.708-1.352.932-.55.22-1.184.329-1.903.329Zm5.585-.17v-8.727h2.347v1.522h.09c.16-.541.427-.95.802-1.227.375-.28.806-.42 1.295-.42.121 0 .252.007.392.022.14.016.263.036.37.063v2.148a3.105 3.105 0 0 0-.472-.091c-.2-.027-.385-.04-.551-.04a1.94 1.94 0 0 0-.955.233 1.715 1.715 0 0 0-.659.636 1.839 1.839 0 0 0-.239.943V134h-2.42Zm14.892-8.727v1.818h-5.256v-1.818h5.256Zm-4.063-2.091h2.421v8.136c0 .224.034.398.102.523a.569.569 0 0 0 .284.256c.125.049.27.073.432.073.114 0 .227-.009.341-.028l.261-.051.381 1.801a7.108 7.108 0 0 1-.511.131c-.22.053-.487.085-.801.096-.584.023-1.095-.055-1.535-.233a2.14 2.14 0 0 1-1.017-.829c-.242-.375-.361-.849-.358-1.421v-8.454ZM66.85 134v-8.727h2.42V134h-2.42Zm1.216-9.852c-.36 0-.669-.12-.927-.358a1.162 1.162 0 0 1-.38-.87c0-.333.127-.619.38-.858.258-.242.567-.363.927-.363.36 0 .666.121.92.363.258.239.386.525.386.858 0 .338-.128.627-.386.87-.254.238-.56.358-.92.358Zm7.785 1.125v1.818h-5.255v-1.818h5.255Zm-4.062-2.091h2.42v8.136c0 .224.034.398.102.523a.569.569 0 0 0 .284.256c.126.049.27.073.432.073.114 0 .228-.009.341-.028.114-.023.2-.04.262-.051l.38 1.801a7.103 7.103 0 0 1-.511.131 4.08 4.08 0 0 1-.801.096c-.584.023-1.095-.055-1.534-.233a2.14 2.14 0 0 1-1.017-.829c-.243-.375-.362-.849-.358-1.421v-8.454Zm8.247-.818V134h-2.42v-11.636h2.42Zm5.916 11.806c-.898 0-1.67-.181-2.318-.545a3.73 3.73 0 0 1-1.489-1.557c-.348-.674-.523-1.471-.523-2.392 0-.898.175-1.685.523-2.364a3.865 3.865 0 0 1 1.472-1.585c.636-.379 1.382-.568 2.238-.568.576 0 1.112.093 1.608.279.5.181.936.456 1.307.823.375.368.667.83.875 1.387.209.553.313 1.2.313 1.943v.665h-7.37v-1.5h5.091a1.85 1.85 0 0 0-.227-.926 1.624 1.624 0 0 0-.63-.631 1.802 1.802 0 0 0-.927-.233c-.367 0-.693.085-.977.256a1.8 1.8 0 0 0-.66.676c-.158.28-.24.593-.244.937v1.426c0 .432.08.805.24 1.12.162.314.391.557.687.727.295.17.645.256 1.05.256.27 0 .516-.038.74-.114a1.476 1.476 0 0 0 .938-.898l2.238.148a3.054 3.054 0 0 1-.7 1.409c-.348.398-.799.708-1.352.932-.549.22-1.183.329-1.903.329Z" fill="#344054"/><path fill="#98A2B3" d="M67 90h168v4H67z"/><circle cx="45" cy="191" r="12" fill="#344054"/><path d="M39.943 197v-1.773l4.142-3.835c.352-.341.648-.648.887-.92.242-.273.426-.54.55-.802.126-.265.188-.551.188-.858 0-.34-.077-.634-.233-.88a1.533 1.533 0 0 0-.636-.574 2 2 0 0 0-.915-.205c-.356 0-.666.072-.932.216a1.49 1.49 0 0 0-.613.62c-.144.269-.216.589-.216.96H39.83c0-.762.172-1.422.517-1.983a3.45 3.45 0 0 1 1.448-1.301c.622-.307 1.338-.46 2.148-.46.834 0 1.559.147 2.176.443.621.291 1.105.697 1.45 1.216.344.519.516 1.113.516 1.784 0 .439-.087.873-.261 1.301-.17.428-.475.903-.915 1.426-.44.519-1.059 1.142-1.858 1.869l-1.699 1.665v.08h4.887V197h-8.296Z" fill="#fff"/><path d="M45 180v-39" stroke="#344054" stroke-dasharray="2 2"/><circle cx="247" cy="140" r="12" fill="#344054"/><path d="M246.244 146.159c-.848 0-1.604-.146-2.267-.437-.659-.296-1.18-.701-1.562-1.216a3.054 3.054 0 0 1-.585-1.796h2.477c.015.284.108.534.278.75.174.212.406.377.693.495.288.117.612.176.972.176.375 0 .706-.067.994-.199.288-.133.514-.316.676-.551.163-.235.245-.506.245-.813 0-.31-.087-.585-.262-.824a1.666 1.666 0 0 0-.738-.568c-.318-.136-.697-.204-1.137-.204h-1.085v-1.807h1.085c.372 0 .699-.065.983-.193.288-.129.512-.307.671-.534.159-.232.238-.5.238-.807 0-.292-.07-.548-.21-.767a1.382 1.382 0 0 0-.579-.523 1.887 1.887 0 0 0-.864-.188c-.333 0-.638.061-.915.182a1.599 1.599 0 0 0-.664.506c-.167.22-.256.477-.268.773h-2.358c.012-.671.203-1.262.574-1.773.372-.511.872-.911 1.5-1.199.633-.292 1.347-.437 2.142-.437.803 0 1.506.145 2.108.437.603.292 1.07.686 1.404 1.182.337.492.504 1.045.5 1.659.004.651-.199 1.195-.608 1.631-.405.435-.934.712-1.585.829v.091c.856.11 1.507.407 1.954.892.451.481.674 1.083.671 1.807a2.846 2.846 0 0 1-.574 1.767c-.383.515-.911.92-1.586 1.216-.674.295-1.446.443-2.318.443Z" fill="#fff"/><path d="M247 129V90" stroke="#344054" stroke-dasharray="2 2"/><circle cx="92" cy="16" r="12" fill="#344054"/><path d="M94.006 10.364V22h-2.46v-9.301h-.069l-2.665 1.67v-2.181l2.881-1.824h2.313Z" fill="#fff"/><path d="M89 16H45v50" stroke="#344054" stroke-dasharray="2 2"/></svg>
